X:1
T:Now to the Lord a noble song
T:Now to the Lord a noble song - Bridgenorth (A. Jenkins)
C:A. Jenkins
Z:p35, The Sacred Herald,
Z:ed. W. J. White,
Z:London: [c1820]
%%score [ 1 2 3 4 ]
L:1/8
M:2/4
K:C
V:1 treble nm="Soprano" snm="S."
V:2 treble nm="Alto" snm="A."
V:3 treble-8 transpose=-12 nm="Tenor" snm="T."
V:4 bass nm="Bass" snm="B."
V:1
"^Con Spirito" c2 GG | (A>B c)d | e2 d2 | c3 d | d2 c2 | (B/A/B/c/ d)c | B2 A2 | G4 | c2 cd | %9
w: The spa- cious|earth, _ _ and|spread- ing|flood, Pro-|claim the|wise _ _ _ _ and|pow’r- ful|God,|And thy rich|
w: Now to the|Lord _ _ a|no- ble|song: A-|wake, my|soul; _ _ _ _ a-|wake, my|tongue;|Ho- san- na|
w: See where it|shines _ _ in|Je- sus’|face, The|bright- est|i- * * * * mage|of his|grace;|God, in the|
 e2 g2 | (c f2) e | (e2 d)G | Ac Bd | (ce) (df) | e3 e | (d>f e/d/)(c/B/) | (A>B c/B/)(c/A/) | %17
w: glo- ries|from _ a-|far _ Shine|forth in ev’- ry|roll- * ing _|star, shine|forth _ _ _ in _|ev- * * * ’ry _|
w: to th’e-|ter- * nal|name, _ And|all his bound- less|love _ pro- *|claim, and|all _ _ _ his _|bound- * * * less _|
w: per- son|of _ his|son, _ Hath|all his might- iest|works _ out- *|done, hath|all _ _ _ his _|might- * * * iest _|
 (G>A) B2 | c4 |] %19
w: roll- * ing|star.|
w: love _ pro-|claim.|
w: works _ out-|done.|
V:2
 E2 EE | (F2 G)A | G2 F2 | E3 z | z ^F FF | G3 G | G2 ^F2 | G4 | G2 GG | G2 G2 | A3 G | G3 z | %12
w: The spa- cious|earth, _ and|spread- ing|flood,|Pro- claim the|wise and|pow’r- ful|God,|And thy rich|glo- ries|from a-|far|
w: Now to the|Lord _ a|no- ble|song:|A- wake, my|soul; a-|wake, my|tongue;|Ho- san- na|to th’e-|ter- nal|name,|
w: See where it|shines _ in|Je- sus’|face,|The bright- est|i- mage|of his|grace;|God, in the|per- son|of his|son,|
 z2 z G | GG GG | G2 G2 | (G>A G/F/)(E/D/) | C>F GF | E2 D2 | E4 |] %19
w: Shine|forth in ev’- ry|roll- ing|star, _ _ _ shine _|forth in ev- ’ry|roll- ing|star.|
w: And|all his bound- less|love pro-|claim, _ _ _ and _|all his bound- less|love pro-|claim.|
w: Hath|all his might- iest|works out-|done, _ _ _ hath _|all his might- iest|works out-|done.|
V:3
 G2 cc | c3 f | c2 B2 | c3 B | (BA) A2 | (B>A B)e | d2 [cd]2 | [Bd]4 | e2 ed | c2 d2 | (c2 d)c | %11
w: The spa- cious|earth, and|spread- ing|flood, Pro-|claim _ the|wise _ _ and|pow’r- ful|God,|And thy rich|glo- ries|from _ a-|
w: Now to the|Lord a|no- ble|song: A-|wake, _ my|soul; _ _ a-|wake, my|tongue;|Ho- san- na|to th’e-|ter- * nal|
w: See where it|shines in|Je- sus’|face, The|bright- * est|i- * * mage|of his|grace;|God, in the|per- son|of _ his|
 (c2 B)B | ce dB | c2 (Bd) | c3 c | B3 G | (c>B e/d/)c | c2 G2 | G4 |] %19
w: far _ Shine|forth in ev’- ry|roll- ing _|star, shine|forth in|ev- * * * ’ry|roll- ing|star.|
w: name, _ And|all his bound- less|love pro- *|claim, and|all his|bound- * * * less|love pro-|claim.|
w: son, _ Hath|all his might- iest|works out- *|done, hath|all his|might- * * * iest|works out-|done.|
V:4
 C,2 E,C, | (F,2 E,)F, | G,2 G,,2 | C,3 z | z D, ^F,D, | G,3 C, | D,2 D,2 | G,,4 | C,2 E,G, | %9
w: The spa- cious|earth, _ and|spread- ing|flood,|Pro- claim the|wise and|pow’r- ful|God,|And thy rich|
w: Now to the|Lord _ a|no- ble|song:|A- wake, my|soul; a-|wake, my|tongue;|Ho- san- na|
w: See where it|shines _ in|Je- sus’|face,|The bright- est|i- mage|of his|grace;|God, in the|
 C2 B,2 | (A,2 B,)C | G,3 z | z2 z G, | C,C, G,B, | %14
w: glo- ries|from _ a-|far|Shine|forth in ev’- ry|
w: to th’e-|ter- * nal|name,|And|all his bound- less|
w: per- son|of _ his|son,|Hath|all his might- iest|
"^This hymn tune is the only item in W. J. White’s collection The Sacred Herald attributed to A. Jenkins.The text given here, of which the first verse is underlaid in The Sacred Herald, is Hymn 47 from Book 2 ofIsaac Watts’ Hymns and Spiritual Songs: verses after the first have been added editorially. ’Shine forth’ hasbeen used at the start of the fourth line in verse 3, rather than the more usual ‘Sparkle’, as being better suitedto the music.The alternative text suggested in The Sacred Herald, Ps. 97 New Version, is ‘Jehovah reigns, let all the earth’.The order of staves in the original is Tenor - Alto - Soprano - Bass, with the alto and tenor parts given in thetreble clef an octave above sounding pitch. The Soprano and Bass staves are bracketed together and akeyboard accompaniment is indicated between these parts with small notes: this keyboard accompanimenthas been omitted from the present edition." (CG,) (E,C,) | %15
w: roll- * ing _|
w: love _ pro- *|
w: works _ out- *|
 G,3"^Grace! ’tis a sweet, a charming theme;My thoughts rejoice at Jesus’ name!Ye angels dwell upon the sound;Ye heav'ns reflect it to the ground!Oh, may I live to reach the placeWhere he unveils his lovely face!Where all his beauties you behold,And sing his name to harps of gold!" G, | %16
w: star, shine|
w: claim, and|
w: done, hath|
 F,>D, E,F, | G,2 G,,2 | C,4 |] %19
w: forth in ev- ’ry|roll- ing|star.|
w: all his bound- less|love pro-|claim.|
w: all his might- iest|works out-|done.|

